app/dist/common/images/k12.svg

<svg height="18" viewBox="0 0 18 18" width="18" xmlns="http://www.w3.org/2000/svg"><path d="m0 0h18v18h-18z" fill="#f0f3fa"/><path d="m10.67 4.04-4.9 1.4c-.45.13-.77.56-.77 1.05v6.42c0 .6.47 1.09 1.05 1.09h4.9c.58 0 1.05-.49 1.05-1.09v-7.81c0-.72-.66-1.24-1.33-1.05z" fill="#0d5ba4"/><path d="m5 6.64c0-.35.33-.64.73-.64h6.54c.4 0 .73.29.73.64v6.72c0 .35-.33.64-.73.64h-6.54c-.4 0-.73-.29-.73-.64z" fill="#1ac0de"/><path d="m7 8h1v1h-1z" fill="#fff"/><path d="m3 8h1v1h-1zm0 3h1v1h-1z" fill="#f2cc03"/><path d="m4 12h1v1h-1zm0-3h1v1h-1z" fill="#0daab6"/><path d="m6 10h1v1h-1zm3 0h1v1h-1zm2 2h1v1h-1zm-6 0h1v1h-1z" fill="#fff"/><path d="m5 9h1v1h-1zm2 1h1v1h-1zm-2 1h1v1h-1zm1 1h1v1h-1z" fill="#0d5ba4"/></svg>

<!-- by TradingView --><svg width="18" height="18" viewBox="0 0 18 18" xmlns="http://www.w3.org/2000/svg"><path fill="#F0F3FA" d="M0 0h18v18H0z"/><path d="m10.67 4.04-4.9 1.4C5.32 5.57 5 6 5 6.49v6.42c0 .6.47 1.09 1.05 1.09h4.9c.58 0 1.05-.49 1.05-1.09V5.1c0-.72-.66-1.24-1.33-1.05Z" fill="#0D5BA4"/><path d="M5 6.64c0-.35.33-.64.73-.64h6.54c.4 0 .73.29.73.64v6.72c0 .35-.33.64-.73.64H5.73c-.4 0-.73-.29-.73-.64V6.64Z" fill="#1AC0DE"/><path fill="#fff" d="M7 8h1v1H7z"/><path fill="#F2CC03" d="M3 8h1v1H3zM3 11h1v1H3z"/><path fill="#0DAAB6" d="M4 12h1v1H4zM4 9h1v1H4z"/><path fill="#fff" d="M6 10h1v1H6zM9 10h1v1H9zM11 12h1v1h-1zM5 12h1v1H5z"/><path fill="#0D5BA4" d="M5 9h1v1H5zM7 10h1v1H7zM5 11h1v1H5zM6 12h1v1H6z"/></svg>
